images/omg.svg

<svg height="250" viewBox="0 0 250 250" width="250" xmlns="http://www.w3.org/2000/svg"><path d="m250 125c0 69.035156-55.964844 125-125 125s-125-55.964844-125-125 55.964844-125 125-125 125 55.964844 125 125zm0 0" fill="#1a53f0"/><path d="m100.398438 141.929688c-15.960938 0-28.902344 12.980468-28.902344 28.988281 0 16.011719 12.941406 28.988281 28.90625 28.988281 15.960937 0 28.90625-12.976562 28.90625-28.988281 0-16.007813-12.941406-28.988281-28.90625-28.988281zm0 49.210937c-11.125 0-20.148438-9.050781-20.148438-20.210937 0-11.164063 9.019531-20.210938 20.148438-20.210938 11.128906 0 20.152343 9.046875 20.152343 20.210938-.015625 11.152343-9.027343 20.195312-20.152343 20.210937zm61.734374-111.046875c-15.964843 0-28.90625 12.980469-28.90625 28.988281 0 16.011719 12.941407 28.988281 28.90625 28.988281 15.964844 0 28.90625-12.976562 28.90625-28.988281 0-16.007812-12.941406-28.988281-28.90625-28.988281zm0 49.207031c-11.125 0-20.152343-9.046875-20.152343-20.207031 0-11.164062 9.019531-20.210938 20.152343-20.210938 11.132813 0 20.152344 9.046876 20.152344 20.210938-.019531 11.15625-9.035156 20.1875-20.152344 20.207031zm-61.734374-49.207031c-13.757813-.011719-25.625 9.710938-28.359376 23.234375-2.734374 13.527344 4.414063 27.113281 17.085938 32.484375 12.707031 5.339844 27.417969.988281 35.179688-10.40625 7.757812-11.394531 6.417968-26.675781-3.203126-36.546875h8.195313v-8.765625zm20.15625 28.988281c0 11.160157-9.023438 20.210938-20.152344 20.210938-11.132813 0-20.152344-9.050781-20.152344-20.210938 0-11.160156 9.019531-20.207031 20.148438-20.207031 11.128906 0 20.144531 9.050781 20.164062 20.210938h-.007812zm0 0" fill="#fff"/></svg>

<svg xmlns="http://www.w3.org/2000/svg" xmlns:xlink="http://www.w3.org/1999/xlink" width="250px" height="250px" viewBox="0 0 250 250" version="1.1">
<g id="surface1">
<path style=" stroke:none;fill-rule:nonzero;fill:rgb(10.196079%,32.549021%,94.117647%);fill-opacity:1;" d="M 250 125 C 250 194.035156 194.035156 250 125 250 C 55.964844 250 0 194.035156 0 125 C 0 55.964844 55.964844 0 125 0 C 194.035156 0 250 55.964844 250 125 Z M 250 125 "/>
<path style=" stroke:none;fill-rule:nonzero;fill:rgb(100%,100%,100%);fill-opacity:1;" d="M 100.398438 141.929688 C 84.4375 141.929688 71.496094 154.910156 71.496094 170.917969 C 71.496094 186.929688 84.4375 199.90625 100.402344 199.90625 C 116.363281 199.90625 129.308594 186.929688 129.308594 170.917969 C 129.308594 154.910156 116.367188 141.929688 100.402344 141.929688 Z M 100.398438 191.140625 C 89.273438 191.140625 80.25 182.089844 80.25 170.929688 C 80.25 159.765625 89.269531 150.71875 100.398438 150.71875 C 111.527344 150.71875 120.550781 159.765625 120.550781 170.929688 C 120.535156 182.082031 111.523438 191.125 100.398438 191.140625 Z M 162.132812 80.09375 C 146.167969 80.09375 133.226562 93.074219 133.226562 109.082031 C 133.226562 125.09375 146.167969 138.070312 162.132812 138.070312 C 178.097656 138.070312 191.039062 125.09375 191.039062 109.082031 C 191.039062 93.074219 178.097656 80.09375 162.132812 80.09375 Z M 162.132812 129.300781 C 151.007812 129.300781 141.980469 120.253906 141.980469 109.09375 C 141.980469 97.929688 151 88.882812 162.132812 88.882812 C 173.265625 88.882812 182.285156 97.929688 182.285156 109.09375 C 182.265625 120.25 173.25 129.28125 162.132812 129.300781 Z M 100.398438 80.09375 C 86.640625 80.082031 74.773438 89.804688 72.039062 103.328125 C 69.304688 116.855469 76.453125 130.441406 89.125 135.8125 C 101.832031 141.152344 116.542969 136.800781 124.304688 125.40625 C 132.0625 114.011719 130.722656 98.730469 121.101562 88.859375 L 129.296875 88.859375 L 129.296875 80.09375 Z M 120.554688 109.082031 C 120.554688 120.242188 111.53125 129.292969 100.402344 129.292969 C 89.269531 129.292969 80.25 120.242188 80.25 109.082031 C 80.25 97.921875 89.269531 88.875 100.398438 88.875 C 111.527344 88.875 120.542969 97.925781 120.5625 109.085938 L 120.554688 109.085938 Z M 120.554688 109.082031 "/>
</g>
</svg>
